X:26
T:Puddleglums Misery
C:John Kirkpatrick
R:hornpipe
M:4/4
L:1/8
K:Amin
(3G^F=F | E2 e2 ^d2 =d2 | cBAB c2 BA | ^GEGB eBGE | AEAc ecAF |
E2e2^d2=d2 | cBAB c2 BA | ^GEGB edcB | A2c2A2::
(3cBA | G2 g2 ^f2 =f2 | edcd e2 dc | BGBd gdBG | cGce gecA |
G2 g2 ^f2 =f2 | edcde4 | (3EFE ^DE edcB | A6 :|
